X: 11
T:Ger the Rigger
R:polka
M:2/4
L:1/16
Q:1/4=121
K:A
|e2A2 e2A2|efed c2A2|d4 defg|a2e2 f2e2|
e2A2 e2A2|efed c2A2|d2fd c2ec|BABc A2:|
|:(3e2f2g2|a2e2 fece|a2e2 fecA|d4 defg|a2e2 f2e2|
a2e2 fece|a2e2 fecA|d2fd c2ec|BABc A2:|
